client/public/assets/icons/standard/quip_sheet.svg

<?xml version="1.0"?><svg xmlns="http://www.w3.org/2000/svg" width="100" height="100" viewBox="0 0 100 100"><path fill="#fff" d="m31.9 38.8h-10c-1 0-1.9 0.9-1.9 1.9v31.9c0 2.8 2.2 5 5 5h6.9c1 0 1.9-0.9 1.9-1.9v-35c0-1.1-0.9-1.9-1.9-1.9z m46.2 0h-37.5c-1 0-1.9 0.9-1.9 1.9v35c0 1 0.9 1.9 1.9 1.9h34.4c2.8 0 5-2.2 5-5v-32c0-1-0.9-1.8-1.9-1.8z m-3.1-16.3h-50c-2.8 0-5 2.2-5 5v4.4c0 1 0.9 1.9 1.9 1.9h56.2c1 0 1.9-0.9 1.9-1.9v-4.4c0-2.7-2.2-5-5-5z"></path></svg>

<?xml version="1.0" encoding="utf-8"?>
<!-- Generator: Adobe Illustrator 21.0.2, SVG Export Plug-In . SVG Version: 6.00 Build 0)  -->
<svg version="1.1" id="Layer_1" xmlns="http://www.w3.org/2000/svg" xmlns:xlink="http://www.w3.org/1999/xlink" x="0px" y="0px"
	 width="100px" height="100px" viewBox="0 0 100 100" enable-background="new 0 0 100 100" xml:space="preserve">
<g>
	<path fill="#FFFFFF" d="M31.9,38.8h-10c-1,0-1.9,0.9-1.9,1.9v31.9c0,2.8,2.2,5,5,5h6.9c1,0,1.9-0.9,1.9-1.9v-35
		C33.8,39.6,32.9,38.8,31.9,38.8z M78.1,38.8H40.6c-1,0-1.9,0.9-1.9,1.9v35c0,1,0.9,1.9,1.9,1.9H75c2.8,0,5-2.2,5-5V40.6
		C80,39.6,79.1,38.8,78.1,38.8z M75,22.5H25c-2.8,0-5,2.2-5,5v4.4c0,1,0.9,1.9,1.9,1.9h56.2c1,0,1.9-0.9,1.9-1.9v-4.4
		C80,24.8,77.8,22.5,75,22.5z"/>
</g>
</svg>
